src/components/Icon/utils/svgsOptimized/arrows-in-simple.svg

<svg width="24" height="24" viewBox="0 0 24 24"  xmlns="http://www.w3.org/2000/svg">
<path d="M18.8135 6.08689L14.8086 10.091H17.0907C17.2594 10.091 17.4213 10.158 17.5406 10.2774C17.6599 10.3967 17.727 10.5586 17.727 10.7273C17.727 10.8961 17.6599 11.058 17.5406 11.1773C17.4213 11.2966 17.2594 11.3637 17.0907 11.3637H13.2727C13.1039 11.3637 12.942 11.2966 12.8227 11.1773C12.7034 11.058 12.6363 10.8961 12.6363 10.7273V6.90935C12.6363 6.74058 12.7034 6.57873 12.8227 6.45939C12.942 6.34006 13.1039 6.27302 13.2727 6.27302C13.4414 6.27302 13.6033 6.34006 13.7226 6.45939C13.842 6.57873 13.909 6.74058 13.909 6.90935V9.19139L17.9131 5.18648C18.0325 5.06708 18.1945 5 18.3633 5C18.5322 5 18.6941 5.06708 18.8135 5.18648C18.9329 5.30588 19 5.46783 19 5.63669C19 5.80554 18.9329 5.96749 18.8135 6.08689ZM10.7273 12.6363H6.90935C6.74058 12.6363 6.57873 12.7034 6.45939 12.8227C6.34006 12.942 6.27302 13.1039 6.27302 13.2727C6.27302 13.4414 6.34006 13.6033 6.45939 13.7226C6.57873 13.842 6.74058 13.909 6.90935 13.909H9.19139L5.18648 17.9131C5.06708 18.0325 5 18.1945 5 18.3633C5 18.5322 5.06708 18.6941 5.18648 18.8135C5.30588 18.9329 5.46783 19 5.63669 19C5.80554 19 5.96749 18.9329 6.08689 18.8135L10.091 14.8086V17.0907C10.091 17.2594 10.158 17.4213 10.2774 17.5406C10.3967 17.6599 10.5586 17.727 10.7273 17.727C10.8961 17.727 11.058 17.6599 11.1773 17.5406C11.2966 17.4213 11.3637 17.2594 11.3637 17.0907V13.2727C11.3637 13.1039 11.2966 12.942 11.1773 12.8227C11.058 12.7034 10.8961 12.6363 10.7273 12.6363Z" />
</svg>

<?xml version="1.0" encoding="utf-8"?><svg width="24" height="24" xmlns="http://www.w3.org/2000/svg" viewBox="0 0 24 24"><path d="m18.814 6.087-4.005 4.004h2.282a.636.636 0 1 1 0 1.273h-3.818a.636.636 0 0 1-.637-.637V6.91a.637.637 0 0 1 1.273 0v2.282l4.004-4.005a.637.637 0 0 1 .9.9Zm-8.087 6.55H6.91a.637.637 0 0 0 0 1.272h2.282l-4.005 4.004a.637.637 0 0 0 .9.9l4.005-4.004v2.282a.636.636 0 1 0 1.273 0v-3.818a.636.636 0 0 0-.637-.637Z"/></svg>
